X:52
T:Slip Jig. RDO.52
L:?
M:9/8
L:1/8
Q:3/8=120
S:Robert D. Owen MS,Indiana,1826.
R:.Slip Jig
O:Indiana,USA
A:New Harmony
Z:vmp.Chris Partington
K:F
F2c fgf e2c|d2fe2g fz2|F2f fgf e2c|d2f ege f3:|!
|:c2AF2Ac2A|d2BG2Bd2B|c2AF2Ac2A|d2f ege f3:|!
|:a2fd2fa2f|g2ec2eg2e|f2ed2ef2a|g2f ege f3:|

